icons/desktop/20/heart-rate-20.svg

<svg width="20" height="20" viewBox="0 0 20 20" fill="none" xmlns="http://www.w3.org/2000/svg">
<path d="M9.25391 7.59473C9.61305 6.2656 11.4042 6.12262 12.001 7.30469L12.0557 7.42285L12.8428 9.36133H15.123C15.6062 9.36135 15.9979 9.75318 15.998 10.2363C15.9978 10.7193 15.6061 11.1113 15.123 11.1113H12.6621C12.0611 11.1113 11.5187 10.7475 11.291 10.1904L11.29 10.1895L10.7344 8.82227L9.76562 12.4072C9.39252 13.7811 7.47597 13.8931 6.95605 12.5576L6.39258 11.1113H4.875C4.39191 11.1113 4.00026 10.7194 4 10.2363C4.0001 9.75317 4.39181 9.36133 4.875 9.36133H6.57812C7.18706 9.36138 7.73549 9.73435 7.95703 10.3047L8.28906 11.1592L9.25391 7.59473Z" fill="black"/>
<path fill-rule="evenodd" clip-rule="evenodd" d="M10 2.50098C12.1308 2.50098 14.5754 2.62049 17.2627 2.9668C18.8205 3.16758 20 4.4946 20 6.07227V13.9297C20 15.489 18.854 16.8265 17.292 17.0293C15.1258 17.3096 12.6793 17.5 10 17.5C7.86922 17.5 5.42458 17.3805 2.7373 17.0342C1.17954 16.8334 0 15.5064 0 13.9287V6.07129C0 4.51198 1.14602 3.17452 2.70801 2.97168C4.8742 2.69139 7.32072 2.50098 10 2.50098ZM10 4.25098C7.40348 4.25098 5.03329 4.43535 2.93359 4.70703C2.25983 4.79442 1.75 5.37477 1.75 6.07129V13.9287C1.75 14.6191 2.2687 15.2086 2.96094 15.2979C5.56556 15.6335 7.93485 15.75 10 15.75C12.5965 15.75 14.9667 15.5656 17.0664 15.2939C17.7402 15.2066 18.25 14.6262 18.25 13.9297V6.07227C18.25 5.38193 17.7313 4.79235 17.0391 4.70312C14.4344 4.36746 12.0652 4.25098 10 4.25098Z" fill="black"/>
</svg>

<!-- This Source Code Form is subject to the terms of the Mozilla Public
   - License, v. 2.0. If a copy of the MPL was not distributed with this
   - file, You can obtain one at http://mozilla.org/MPL/2.0/. -->
<svg xmlns="http://www.w3.org/2000/svg" width="20" height="20" fill="context-fill" fill-opacity="context-fill-opacity" viewBox="0 0 20 20">
    <path d="M9.254 7.595c.359-1.33 2.15-1.472 2.747-.29l.055.118.787 1.938h2.28a.875.875 0 0 1 0 1.75h-2.46a1.48 1.48 0 0 1-1.372-.92l-.001-.002-.556-1.367-.968 3.585c-.373 1.374-2.29 1.486-2.81.15l-.563-1.446H4.875a.875.875 0 0 1 0-1.75h1.703c.61 0 1.157.373 1.379.944l.332.854z" />
    <path fill-rule="evenodd" d="M10 2.501c2.13 0 4.575.12 7.263.466A3.14 3.14 0 0 1 20 6.072v7.858a3.12 3.12 0 0 1-2.708 3.1 56.8 56.8 0 0 1-14.555.004A3.14 3.14 0 0 1 0 13.93V6.07a3.12 3.12 0 0 1 2.708-3.1A57 57 0 0 1 10 2.502m0 1.75c-2.597 0-4.967.184-7.066.456A1.37 1.37 0 0 0 1.75 6.071v7.858c0 .69.519 1.28 1.21 1.369a55 55 0 0 0 14.106-.004 1.37 1.37 0 0 0 1.184-1.364V6.072c0-.69-.519-1.28-1.21-1.369A55 55 0 0 0 10 4.251" clip-rule="evenodd" />
</svg>
